!! 00047] TT[KA
!! NN
!!!OTL: Bayue guihua biandi kai
!!!ARE: Asia, China,ÿAnhui, Jinzhai
!! Ethnic Group: Han
!! III, 552
!!!SCT: C0343
!!!YEM: Copyright 1995, estate of Helmut Schaffrath.
**kern
*ICvox
*Ivox
*M2/4
*k[f#c#]
*D:
{8.dd
16b
4a
=1
8.b
16a
4b
=2
8.f#
16e
8f#
8a
=3
8b
8a
4b}
=4
{8.a
16b
4dd
=5
8.b
16a
4f#
=6
8f#
16e
16f#
8a
16f#
16e
=7
2d}
=8
{8f#
16f#
16a
8b
16b
16dd
=9
8.a
16f#
4a}
=10
{8f#
16f#
16a
8b
16b
16dd
=11
8.a
16f#
4a}
=12
{8.a
16b
4dd
=13
8.b
16a
4f#
=14
8f#
16e
16f#
8a
16f#
16e
=15
2d}
=16
{8a
16a
16b
8a
8f#
=17
16e
16f#
16e
16d
4e}
=18
{8a
16b
16dd
8b
16a
16f#
=19
16e
16f#
16e
16d
4e}
=20
{8a
16a
16b
4dd
=21
8b
16b
16a
4f#
=22
8f#
16e
16f#
8a
16f#
16e
=23
2d}
==
!!!AGN: Xiaodiao, Shidiao, Baduanjing. Geming lishi minge
!! +++BEREITS CODIERT Version aber aus SICHUAN, bitte vergleichen! +++
!!    Pinyin-Text der ersten Strophe vorhanden!
!!!ONB: ESAC (Essen Associative Code) Database: CHINA
!!!AMT: simple duple
!!!AIN: vox
!!!EED: Helmut Schaffrath
!!!EEV: 1.0
*-
